src/32x32/places/folder-gruvbox-material-red-meocloud.svg

<?xml version="1.0" encoding="UTF-8"?>
<svg width="32" height="32" version="1" xmlns="http://www.w3.org/2000/svg">
 <rect x="2" y="11" width="28" height="18" rx="1.4" ry="1.4" opacity=".2"/>
 <path d="m2 22.6c0 0.776 0.6244 1.4 1.4 1.4h25.2c0.776 0 1.4-0.624 1.4-1.4v-15.2c0-0.7756-0.624-1.4-1.4-1.4h-12.6c-2.1 0-2.8-3-4.9-3h-7.7c-0.7756 0-1.4 0.6244-1.4 1.4" fill="#c14a4a"/>
 <rect x="2" y="9" width="28" height="18" rx="1.4" ry="1.4" opacity=".2"/>
 <rect x="4" y="8" width="24" height="11" rx="1.4" ry="1.4" fill="#f0ddc3"/>
 <rect x="2" y="10" width="28" height="18" rx="1.4" ry="1.4" fill="#ea6962"/>
 <path d="m3.4004 3c-0.7756 0-1.4004 0.6248-1.4004 1.4004v1c0-0.7756 0.6248-1.4004 1.4004-1.4004h7.6996c2.1 0 2.8 3 4.9 3h12.6c0.775 0 1.4 0.6248 1.4 1.4004v-1c0-0.7756-0.625-1.4004-1.4-1.4004h-12.6c-2.1 0-2.8-3-4.9-3z" fill="#f0ddc3" opacity=".1"/>
 <path d="m17.2 15c-1.202 0-2.303 0.676-2.848 1.748-0.239-0.097-0.495-0.148-0.752-0.148-1.001 0-1.845 0.741-1.979 1.732-0.968 0.333-1.62 1.244-1.621 2.268 0 1.325 1.075 2.4 2.4 2.4h7.2c1.325 0 2.4-1.075 2.4-2.4-1e-3 -1.019-0.644-1.925-1.605-2.262 3e-3 -0.046 4e-3 -0.093 5e-3 -0.139 0-1.767-1.433-3.199-3.2-3.199zm-1e-3 2c0.685 0 1.197 0.511 1.199 1.195v6e-3c-0.061 0.898 0.485 1.726 1.334 2.024 0.167 0.058 0.267 0.199 0.268 0.375 0 0.244-0.156 0.4-0.4 0.4h-7.2c-0.244 0-0.399-0.155-0.4-0.398v-2e-3c1e-3 -0.178 0.102-0.318 0.27-0.375 0.715-0.246 1.23-0.874 1.332-1.623 0.962 0.39 2.062-0.021 2.533-0.946 0.206-0.406 0.612-0.656 1.064-0.656z" fill="#543937"/>
</svg>

<svg xmlns="http://www.w3.org/2000/svg" width="32" height="32" version="1">
 <rect style="opacity:0.2" width="28" height="18" x="2" y="11" rx="1.4" ry="1.4"/>
 <path style="fill:#c14a4a" d="M 2,22.6 C 2,23.376 2.6244,24 3.4,24 H 28.6 C 29.376,24 30,23.376 30,22.6 V 7.4 C 30,6.6244 29.376,6 28.6,6 H 16 C 13.9,6 13.2,3 11.1,3 H 3.4 C 2.6244,3 2,3.6244 2,4.4"/>
 <rect style="opacity:0.2" width="28" height="18" x="2" y="9" rx="1.4" ry="1.4"/>
 <rect style="fill:#f0ddc3" width="24" height="11" x="4" y="8" rx="1.4" ry="1.4"/>
 <rect style="fill:#ea6962" width="28" height="18" x="2" y="10" rx="1.4" ry="1.4"/>
 <path style="opacity:0.1;fill:#f0ddc3" d="M 3.4004,3 C 2.6248,3 2,3.6248 2,4.4004 V 5.4004 C 2,4.6248 2.6248,4 3.4004,4 H 11.1 C 13.2,4 13.9,7 16,7 H 28.6 C 29.375,7 30,7.6248 30,8.4004 V 7.4004 C 30,6.6248 29.375,6 28.6,6 H 16 C 13.9,6 13.2,3 11.1,3 Z"/>
 <path style="fill:#543937" d="m 17.2,15 c -1.202,0 -2.303,0.676 -2.848,1.748 C 14.113,16.651 13.857,16.6 13.6,16.6 c -1.001,0 -1.845,0.741 -1.979,1.732 -0.968,0.333 -1.62,1.244 -1.621,2.268 0,1.325 1.075,2.4 2.4,2.4 h 7.2 C 20.925,23 22,21.925 22,20.6 21.999,19.581 21.356,18.675 20.395,18.338 20.398,18.292 20.399,18.245 20.4,18.199 20.4,16.432 18.967,15 17.2,15 Z m -10e-4,2 c 0.685,0 1.197,0.511 1.199,1.195 v 0.006 c -0.061,0.898 0.485,1.726 1.334,2.024 0.167,0.058 0.267,0.199 0.268,0.375 0,0.244 -0.156,0.4 -0.4,0.4 H 12.4 C 12.156,21 12.001,20.845 12,20.602 V 20.6 c 10e-4,-0.178 0.102,-0.318 0.27,-0.375 0.715,-0.246 1.23,-0.874 1.332,-1.623 0.962,0.39 2.062,-0.021 2.533,-0.946 C 16.341,17.25 16.747,17 17.199,17 Z"/>
</svg>
